app/assets/images/icons/active/back-arrow.svg

<svg width="32" height="232" viewBox="0 0 32 232" xmlns="http://www.w3.org/2000/svg"><title>back-arrow</title><g fill="none"><path d="M32 149s-3.556-17.892-19.155-17.892v-7.108l-12.845 11.867 12.845 12.299v-8.011c8.466 0 14.739.775 19.155 8.845" fill="#206FAC"/><path d="M32 109s-3.556-17.892-19.155-17.892v-7.108l-12.845 11.867 12.845 12.299v-8.011c8.466 0 14.739.775 19.155 8.845" fill="#fff"/><path d="M32 69s-3.556-17.892-19.155-17.892v-7.108l-12.845 11.867 12.845 12.299v-8.011c8.466 0 14.739.775 19.155 8.845" fill="#67737B"/><path d="M32 29s-3.556-17.892-19.155-17.892v-7.108l-12.845 11.867 12.845 12.299v-8.011c8.466 0 14.739.775 19.155 8.845" fill="#3A434E"/></g></svg>

<svg width="32" height="232" viewBox="0 0 32 232" xmlns="http://www.w3.org/2000/svg"><title>back-arrow</title><g fill="none"><path d="M32 149s-3.556-17.892-19.155-17.892V124L0 135.867l12.845 12.3v-8.012c8.466 0 14.74.775 19.155 8.845" fill="#206FAC"/><path d="M32 109s-3.556-17.892-19.155-17.892V84L0 95.867l12.845 12.3v-8.012c8.466 0 14.74.775 19.155 8.845" fill="#fff"/><path d="M32 69s-3.556-17.892-19.155-17.892V44L0 55.867l12.845 12.3v-8.012c8.466 0 14.74.775 19.155 8.845" fill="#67737B"/><path d="M32 29s-3.556-17.892-19.155-17.892V4L0 15.867l12.845 12.3v-8.012c8.466 0 14.74.775 19.155 8.845" fill="#3A434E"/></g></svg>
